humanity-icon-theme/Humanity/actions/48/edit-select-all.svg

<?xml version="1.0" encoding="UTF-8" standalone="no"?>
<!-- Created with Inkscape (http://www.inkscape.org/) -->
<svg
   xmlns:svg="http://www.w3.org/2000/svg"
   xmlns="http://www.w3.org/2000/svg"
   xmlns:xlink="http://www.w3.org/1999/xlink"
   xmlns:inkscape="http://www.inkscape.org/namespaces/inkscape"
   version="1.0"
   width="48"
   height="48"
   id="svg3508">
  <defs
     id="defs3510">
    <linearGradient
       id="linearGradient5048">
      <stop
         id="stop5050"
         style="stop-color:#000000;stop-opacity:0"
         offset="0" />
      <stop
         id="stop5056"
         style="stop-color:#000000;stop-opacity:1"
         offset="0.5" />
      <stop
         id="stop5052"
         style="stop-color:#000000;stop-opacity:0"
         offset="1" />
    </linearGradient>
    <linearGradient
       id="linearGradient5060">
      <stop
         id="stop5062"
         style="stop-color:#000000;stop-opacity:1"
         offset="0" />
      <stop
         id="stop5064"
         style="stop-color:#000000;stop-opacity:0"
         offset="1" />
    </linearGradient>
    <linearGradient
       id="linearGradient3600">
      <stop
         id="stop3602"
         style="stop-color:#f4f4f4;stop-opacity:1"
         offset="0" />
      <stop
         id="stop3604"
         style="stop-color:#dbdbdb;stop-opacity:1"
         offset="1" />
    </linearGradient>
    <radialGradient
       cx="102"
       cy="112.3047"
       r="139.55859"
       id="XMLID_8_"
       gradientUnits="userSpaceOnUse">
      <stop
         id="stop41"
         style="stop-color:#b7b8b9;stop-opacity:1"
         offset="0" />
      <stop
         id="stop47"
         style="stop-color:#ececec;stop-opacity:1"
         offset="0.18851049" />
      <stop
         id="stop49"
         style="stop-color:#fafafa;stop-opacity:0"
         offset="0.25718147" />
      <stop
         id="stop51"
         style="stop-color:#ffffff;stop-opacity:0"
         offset="0.30111277" />
      <stop
         id="stop53"
         style="stop-color:#fafafa;stop-opacity:0"
         offset="0.53130001" />
      <stop
         id="stop55"
         style="stop-color:#ebecec;stop-opacity:0"
         offset="0.84490001" />
      <stop
         id="stop57"
         style="stop-color:#e1e2e3;stop-opacity:0"
         offset="1" />
    </radialGradient>
    <linearGradient
       id="linearGradient3211">
      <stop
         id="stop3213"
         style="stop-color:#ffffff;stop-opacity:1"
         offset="0" />
      <stop
         id="stop3215"
         style="stop-color:#ffffff;stop-opacity:0"
         offset="1" />
    </linearGradient>
    <linearGradient
       id="linearGradient3104">
      <stop
         id="stop3106"
         style="stop-color:#aaaaaa;stop-opacity:1"
         offset="0" />
      <stop
         id="stop3108"
         style="stop-color:#c8c8c8;stop-opacity:1"
         offset="1" />
    </linearGradient>
    <filter
       height="1.3286875"
       y="-0.16434373"
       width="1.2969251"
       x="-0.14846256"
       id="filter3248">
      <feGaussianBlur
         id="feGaussianBlur3250"
         stdDeviation="0.77391625"
         inkscape:collect="always" />
    </filter>
    <linearGradient
       id="linearGradient8589">
      <stop
         id="stop8591"
         style="stop-color:#fefefe;stop-opacity:1"
         offset="0" />
      <stop
         id="stop8593"
         style="stop-color:#cbcbcb;stop-opacity:1"
         offset="1" />
    </linearGradient>
    <linearGradient
       x1="32.892288"
       y1="8.0590115"
       x2="36.358372"
       y2="5.4565363"
       id="linearGradient2432"
       xlink:href="#linearGradient8589"
       gradientUnits="userSpaceOnUse"
       gradientTransform="matrix(0.9976985,0,0,1.0406866,0.1638029,-1.1057939)" />
    <linearGradient
       x1="22.004084"
       y1="47.813133"
       x2="22.004084"
       y2="3.3638515"
       id="linearGradient2439"
       xlink:href="#linearGradient3104"
       gradientUnits="userSpaceOnUse"
       gradientTransform="translate(-1.982096,-3.0470736)" />
    <linearGradient
       x1="24"
       y1="1.9999999"
       x2="24"
       y2="46.01725"
       id="linearGradient2442"
       xlink:href="#linearGradient3211"
       gradientUnits="userSpaceOnUse"
       gradientTransform="matrix(1,0,0,0.9777778,0,-0.9666693)" />
    <radialGradient
       cx="102"
       cy="112.3047"
       r="139.55859"
       id="radialGradient2445"
       xlink:href="#XMLID_8_"
       gradientUnits="userSpaceOnUse"
       gradientTransform="matrix(0.3617022,0,0,-0.3907784,0.8510637,47.517004)" />
    <linearGradient
       x1="25.132275"
       y1="0.98520643"
       x2="25.132275"
       y2="47.013336"
       id="linearGradient2448"
       xlink:href="#linearGradient3600"
       gradientUnits="userSpaceOnUse"
       gradientTransform="matrix(1,0,0,0.9561695,-1.0064697e-7,-1.914922)" />
    <linearGradient
       x1="-51.786404"
       y1="50.786446"
       x2="-51.786404"
       y2="2.9062471"
       id="linearGradient2450"
       xlink:href="#linearGradient3104"
       gradientUnits="userSpaceOnUse"
       gradientTransform="matrix(0.8074968,0,0,0.8948322,59.410232,-2.9805533)" />
    <radialGradient
       cx="605.71429"
       cy="486.64789"
       r="117.14286"
       fx="605.71429"
       fy="486.64789"
       id="radialGradient2453"
       xlink:href="#linearGradient5060"
       gradientUnits="userSpaceOnUse"
       gradientTransform="matrix(2.3039948e-2,0,0,1.4700216e-2,26.360882,37.040176)" />
    <radialGradient
       cx="605.71429"
       cy="486.64789"
       r="117.14286"
       fx="605.71429"
       fy="486.64789"
       id="radialGradient2456"
       xlink:href="#linearGradient5060"
       gradientUnits="userSpaceOnUse"
       gradientTransform="matrix(-2.3039943e-2,0,0,1.4700216e-2,21.62311,37.040176)" />
    <linearGradient
       x1="302.85715"
       y1="366.64789"
       x2="302.85715"
       y2="609.50507"
       id="linearGradient2459"
       xlink:href="#linearGradient5048"
       gradientUnits="userSpaceOnUse"
       gradientTransform="matrix(6.7324884e-2,0,0,1.4700216e-2,-0.3411391,37.040146)" />
  </defs>
  <rect
     width="32.508301"
     height="3.5700529"
     x="7.7378473"
     y="42.429947"
     id="rect2879"
     style="opacity:0.3;fill:url(#linearGradient2459);fill-opacity:1;fill-rule:nonzero;stroke:none;stroke-width:1;stroke-linecap:round;stroke-linejoin:miter;marker:none;marker-start:none;marker-mid:none;marker-end:none;stroke-miterlimit:4;stroke-dasharray:none;stroke-dashoffset:0;stroke-opacity:1;visibility:visible;display:inline;overflow:visible" />
  <path
     d="M 7.7378475,42.430102 C 7.7378475,42.430102 7.7378475,45.999958 7.7378475,45.999958 C 6.5513473,46.006679 4.869468,45.200135 4.869468,44.2148 C 4.869468,43.229467 6.1935126,42.430103 7.7378475,42.430102 z"
     id="path2881"
     style="opacity:0.3;fill:url(#radialGradient2456);fill-opacity:1;fill-rule:nonzero;stroke:none;stroke-width:1;stroke-linecap:round;stroke-linejoin:miter;marker:none;marker-start:none;marker-mid:none;marker-end:none;stroke-miterlimit:4;stroke-dasharray:none;stroke-dashoffset:0;stroke-opacity:1;visibility:visible;display:inline;overflow:visible" />
  <path
     d="M 40.246148,42.430102 C 40.246148,42.430102 40.246148,45.999958 40.246148,45.999958 C 41.432648,46.006679 43.114528,45.200135 43.114528,44.2148 C 43.114528,43.229467 41.790483,42.430103 40.246148,42.430102 z"
     id="path2883"
     style="opacity:0.3;fill:url(#radialGradient2453);fill-opacity:1;fill-rule:nonzero;stroke:none;stroke-width:1;stroke-linecap:round;stroke-linejoin:miter;marker:none;marker-start:none;marker-mid:none;marker-end:none;stroke-miterlimit:4;stroke-dasharray:none;stroke-dashoffset:0;stroke-opacity:1;visibility:visible;display:inline;overflow:visible" />
  <path
     d="M 6.4999609,0.49719878 C 14.520256,0.49719878 22.540551,0.49719878 30.560847,0.49719878 C 31.96778,0.97185188 39.526301,6.3794034 41.500042,10.123605 C 41.500042,21.583338 41.500042,33.04307 41.500042,44.502803 C 29.833348,44.502803 18.166655,44.502803 6.4999609,44.502803 C 6.4999609,29.834268 6.4999609,15.165733 6.4999609,0.49719878 z"
     id="path4160"
     style="fill:url(#linearGradient2448);fill-opacity:1;stroke:url(#linearGradient2450);stroke-width:0.99992186;stroke-linecap:butt;stroke-linejoin:round;stroke-miterlimit:4;stroke-dasharray:none;stroke-dashoffset:0;stroke-opacity:1;display:inline" />
  <path
     d="M 7.3617017,44 C 7.1624047,44 6.9999997,43.824541 6.9999997,43.60922 L 6.9999997,1.4051701 C 6.9999997,1.1894613 7.1624047,1.0143926 7.3617017,1.0143926 C 14.844793,1.1224073 23.137385,0.85281757 30.611384,1.0412872 L 40.894021,9.9073127 L 41,43.60922 C 41,43.824541 40.837957,44 40.638297,44 L 7.3617017,44 z"
     id="path4191"
     style="fill:url(#radialGradient2445);fill-opacity:1" />
  <path
     d="M 40.500039,10.258811 C 40.500039,21.207848 40.500039,32.573221 40.500039,43.522258 C 29.500013,43.522258 18.499987,43.522258 7.4999609,43.522258 C 7.4999609,29.507417 7.4999609,15.492577 7.4999609,1.4777367 C 15.061954,1.4777367 22.804295,1.4777367 30.366289,1.4777367"
     id="path2435"
     style="opacity:0.6;fill:none;fill-opacity:1;stroke:url(#linearGradient2442);stroke-width:0.9999218;stroke-linecap:butt;stroke-linejoin:round;stroke-miterlimit:4;stroke-dasharray:none;stroke-dashoffset:0;stroke-opacity:1;display:inline" />
  <path
     d="M 11,8.5 L 13.34375,8.5 L 11,8.5 z M 13.6875,8.5 L 15.875,8.5 L 13.6875,8.5 z M 16.21875,8.5 L 18.15625,8.5 L 16.21875,8.5 z M 18.46875,8.5 L 19.3125,8.5 L 18.46875,8.5 z M 19.65625,8.5 L 21.53125,8.5 L 19.65625,8.5 z M 21.90625,8.5 L 26.84375,8.5 L 21.90625,8.5 z M 27.15625,8.5 L 30.9375,8.5 L 27.15625,8.5 z M 31.25,8.5 L 32.40625,8.5 L 31.25,8.5 z M 11,10.5 L 14.65625,10.5 L 11,10.5 z M 15.0625,10.5 L 16.8125,10.5 L 15.0625,10.5 z M 17.125,10.5 L 18,10.5 L 17.125,10.5 z M 18.34375,10.5 L 19.9375,10.5 L 18.34375,10.5 z M 20.28125,10.5 L 21.90625,10.5 L 20.28125,10.5 z M 22.21875,10.5 L 24.8125,10.5 L 22.21875,10.5 z M 25.15625,10.5 L 28.53125,10.5 L 25.15625,10.5 z M 28.84375,10.5 L 31.09375,10.5 L 28.84375,10.5 z M 31.40625,10.5 L 31.96875,10.5 L 31.40625,10.5 z M 11,12.46875 L 14.09375,12.46875 L 11,12.46875 z M 14.40625,12.46875 L 19.46875,12.46875 L 14.40625,12.46875 z M 19.78125,12.46875 L 22.25,12.46875 L 19.78125,12.46875 z M 22.5625,12.46875 L 24.875,12.46875 L 22.5625,12.46875 z M 25.1875,12.46875 L 27.15625,12.46875 L 25.1875,12.46875 z M 27.46875,12.46875 L 30.5625,12.5 L 27.46875,12.46875 z M 30.84375,12.5 L 35.875,12.5 L 30.84375,12.5 z M 11,14.5 L 15.28125,14.5 L 11,14.5 z M 15.625,14.5 L 20.25,14.5 L 15.625,14.5 z M 20.5625,14.5 L 22.40625,14.5 L 20.5625,14.5 z M 22.71875,14.5 L 27.0625,14.5 L 22.71875,14.5 z M 27.34375,14.5 L 30.3125,14.5 L 27.34375,14.5 z M 30.65625,14.5 L 31.84375,14.5 L 30.65625,14.5 z M 32.15625,14.5 L 32.8125,14.5 L 32.15625,14.5 z M 33.15625,14.5 L 35,14.5 L 33.15625,14.5 z M 11,16.5 L 12.59375,16.5 L 11,16.5 z M 13.09375,16.5 L 19,16.5 L 13.09375,16.5 z M 11,20.46875 L 14.09375,20.46875 L 11,20.46875 z M 14.40625,20.46875 L 19.46875,20.46875 L 14.40625,20.46875 z M 19.78125,20.46875 L 22.25,20.46875 L 19.78125,20.46875 z M 22.5625,20.46875 L 24.875,20.46875 L 22.5625,20.46875 z M 25.1875,20.46875 L 27.15625,20.46875 L 25.1875,20.46875 z M 27.46875,20.46875 L 30.5625,20.5 L 27.46875,20.46875 z M 30.84375,20.5 L 35.875,20.5 L 30.84375,20.5 z M 11,22.5 L 13.34375,22.5 L 11,22.5 z M 13.6875,22.5 L 15.84375,22.5 L 13.6875,22.5 z M 16.21875,22.5 L 18.15625,22.5 L 16.21875,22.5 z M 18.46875,22.5 L 19.3125,22.5 L 18.46875,22.5 z M 19.65625,22.5 L 21.53125,22.5 L 19.65625,22.5 z M 21.90625,22.5 L 26.8125,22.5 L 21.90625,22.5 z M 27.15625,22.5 L 30.90625,22.5 L 27.15625,22.5 z M 31.21875,22.5 L 32.40625,22.5 L 31.21875,22.5 z M 32.71875,22.5 L 35.53125,22.5 L 32.71875,22.5 z M 11,24.5 L 14.9375,24.5 L 11,24.5 z M 15.25,24.5 L 19.46875,24.5 L 15.25,24.5 z M 19.78125,24.5 L 21.40625,24.5 L 19.78125,24.5 z M 21.71875,24.5 L 25.6875,24.5 L 21.71875,24.5 z M 26,24.5 L 31,24.5 L 26,24.5 z M 31.34375,24.5 L 33.1875,24.5 L 31.34375,24.5 z M 11,26.5 L 15.28125,26.5 L 11,26.5 z M 15.625,26.5 L 20.25,26.5 L 15.625,26.5 z M 20.5625,26.5 L 22.40625,26.5 L 20.5625,26.5 z M 22.71875,26.5 L 27.0625,26.5 L 22.71875,26.5 z M 27.34375,26.5 L 30.3125,26.5 L 27.34375,26.5 z M 30.65625,26.5 L 31.84375,26.5 L 30.65625,26.5 z M 32.15625,26.5 L 32.8125,26.5 L 32.15625,26.5 z M 33.15625,26.5 L 35,26.5 L 33.15625,26.5 z M 11,28.5 L 14.65625,28.5 L 11,28.5 z M 15.0625,28.5 L 16.8125,28.5 L 15.0625,28.5 z M 17.125,28.5 L 18,28.5 L 17.125,28.5 z M 18.34375,28.5 L 19.9375,28.5 L 18.34375,28.5 z M 20.28125,28.5 L 21.90625,28.5 L 20.28125,28.5 z M 22.21875,28.5 L 24.8125,28.5 L 22.21875,28.5 z M 25.15625,28.5 L 28.53125,28.5 L 25.15625,28.5 z M 28.84375,28.5 L 31.09375,28.5 L 28.84375,28.5 z M 31.40625,28.5 L 31.96875,28.5 L 31.40625,28.5 z M 11,32.46875 L 14.09375,32.46875 L 11,32.46875 z M 14.40625,32.46875 L 19.46875,32.46875 L 14.40625,32.46875 z M 19.78125,32.46875 L 22.25,32.46875 L 19.78125,32.46875 z M 22.5625,32.46875 L 24.875,32.46875 L 22.5625,32.46875 z M 25.1875,32.46875 L 27.15625,32.46875 L 25.1875,32.46875 z M 27.46875,32.46875 L 30.5625,32.5 L 27.46875,32.46875 z M 30.84375,32.5 L 35.875,32.5 L 30.84375,32.5 z M 11,34.5 L 14.65625,34.5 L 11,34.5 z M 15.0625,34.5 L 16.8125,34.5 L 15.0625,34.5 z M 17.125,34.5 L 18,34.5 L 17.125,34.5 z M 18.34375,34.5 L 19.9375,34.5 L 18.34375,34.5 z M 20.28125,34.5 L 21.90625,34.5 L 20.28125,34.5 z M 22.21875,34.5 L 24.8125,34.5 L 22.21875,34.5 z M 25.15625,34.5 L 28.53125,34.5 L 25.15625,34.5 z M 28.84375,34.5 L 31.09375,34.5 L 28.84375,34.5 z M 31.40625,34.5 L 31.96875,34.5 L 31.40625,34.5 z M 11,36.5 L 14.875,36.5 L 11,36.5 z M 15.21875,36.5 L 16.4375,36.5 L 15.21875,36.5 z M 16.75,36.5 L 19.53125,36.5 L 16.75,36.5 z M 19.84375,36.5 L 23.9375,36.5 L 19.84375,36.5 z M 24.28125,36.5 L 27.0625,36.5 L 24.28125,36.5 z M 27.34375,36.5 L 27.9375,36.5 L 27.34375,36.5 z M 28.25,36.5 L 31.78125,36.5 L 28.25,36.5 z M 32.15625,36.5 L 34,36.5 L 32.15625,36.5 z M 11,38.5 L 14.875,38.5 L 11,38.5 z M 15.21875,38.5 L 16.96875,38.5 L 15.21875,38.5 z M 17.28125,38.5 L 20.03125,38.5 L 17.28125,38.5 z M 20.34375,38.5 L 23.3125,38.5 L 20.34375,38.5 z M 23.65625,38.5 L 24.84375,38.5 L 23.65625,38.5 z M 25.15625,38.5 L 25.8125,38.5 L 25.15625,38.5 z M 26.15625,38.5 L 28,38.5 L 26.15625,38.5 z"
     id="path3475"
     style="fill:none;fill-rule:evenodd;stroke:url(#linearGradient2439);stroke-width:1px;stroke-linecap:butt;stroke-linejoin:miter;stroke-opacity:1" />
  <path
     d="M 10,7 L 10,37 L 10,38 L 10,40 L 27,40 L 27,38 L 37,38 L 37,7 L 10,7 z"
     id="rect2878"
     style="opacity:0.3;fill:#cf9372;fill-opacity:1;stroke:none;stroke-width:2;stroke-linecap:round;stroke-linejoin:miter;stroke-miterlimit:4;stroke-dasharray:none;stroke-dashoffset:0;stroke-opacity:1;display:inline" />
  <path
     d="M 24,35 L 24,38 L 25,38 L 25,39 L 24,39 L 24,42 L 29,42 L 29,39 L 28.03125,39 L 28.03125,38 L 29,38 L 29,35 L 24,35 z"
     id="rect3782"
     style="fill:#ffffff;fill-opacity:1;stroke:none;stroke-width:2;stroke-linecap:round;stroke-linejoin:miter;stroke-miterlimit:4;stroke-dasharray:none;stroke-dashoffset:0;stroke-opacity:1;display:inline" />
  <path
     d="M 25,36 L 25,37 L 26,37 L 26,40 L 25,40 L 25,41 L 28,41 L 28,40 L 27,40 L 27,37 L 28,37 L 28,36 L 25,36 z"
     id="rect3789"
     style="fill:#000000;fill-opacity:1;stroke:none;stroke-width:2;stroke-linecap:round;stroke-linejoin:miter;stroke-miterlimit:4;stroke-dasharray:none;stroke-dashoffset:0;stroke-opacity:1;display:inline" />
  <path
     d="M 28.617256,0.92125832 C 32.899778,0.92125832 30.770506,9.4044296 30.770506,9.4044296 C 30.770506,9.4044296 41.128148,7.6020829 41.128148,12.223174 C 41.128148,9.6134507 29.825844,1.4945784 28.617256,0.92125832 z"
     id="path12038"
     style="opacity:0.4;fill:#000000;fill-opacity:1;fill-rule:evenodd;stroke:none;stroke-width:1px;stroke-linecap:butt;stroke-linejoin:miter;stroke-opacity:1;display:inline;filter:url(#filter3248)" />
  <path
     d="M 28.617256,0.92125832 C 31.803749,0.92125832 30.953016,8.5831368 30.953016,8.5831368 C 30.953016,8.5831368 41.128148,7.6020829 41.128148,12.223174 C 41.128148,11.097235 41.214061,10.290929 40.994371,9.9395812 C 39.416058,7.4154025 32.598855,1.7511811 30.137071,1.008793 C 29.952849,0.95323837 29.544367,0.92125832 28.617256,0.92125832 z"
     id="path4474"
     style="fill:url(#linearGradient2432);fill-opacity:1;fill-rule:evenodd;stroke:none;stroke-width:1px;stroke-linecap:butt;stroke-linejoin:miter;stroke-opacity:1;display:inline" />
</svg>

<?xml version="1.0" encoding="UTF-8" standalone="no"?>
<!-- Created with Inkscape (http://www.inkscape.org/) -->
<svg id="svg3508" xmlns="http://www.w3.org/2000/svg" height="48" width="48" version="1.0" xmlns:xlink="http://www.w3.org/1999/xlink">
 <defs id="defs3510">
  <linearGradient id="linearGradient5060">
   <stop id="stop5062" offset="0"/>
   <stop id="stop5064" style="stop-opacity:0" offset="1"/>
  </linearGradient>
  <linearGradient id="linearGradient3104">
   <stop id="stop3106" style="stop-color:#aaa" offset="0"/>
   <stop id="stop3108" style="stop-color:#c8c8c8" offset="1"/>
  </linearGradient>
  <filter id="filter3248" y="-.16434" width="1.2969" x="-.14846" height="1.3287">
   <feGaussianBlur id="feGaussianBlur3250" stdDeviation="0.77391625"/>
  </filter>
  <linearGradient id="linearGradient2432" y2="5.4565" gradientUnits="userSpaceOnUse" x2="36.358" gradientTransform="matrix(.99770 0 0 1.0407 .16380 -1.1058)" y1="8.059" x1="32.892">
   <stop id="stop8591" style="stop-color:#fefefe" offset="0"/>
   <stop id="stop8593" style="stop-color:#cbcbcb" offset="1"/>
  </linearGradient>
  <linearGradient id="linearGradient2439" y2="3.3639" xlink:href="#linearGradient3104" gradientUnits="userSpaceOnUse" x2="22.004" gradientTransform="translate(-1.9821 -3.0471)" y1="47.813" x1="22.004"/>
  <linearGradient id="linearGradient2442" y2="46.017" gradientUnits="userSpaceOnUse" x2="24" gradientTransform="matrix(1 0 0 .97778 0 -.96667)" y1="2" x1="24">
   <stop id="stop3213" style="stop-color:#fff" offset="0"/>
   <stop id="stop3215" style="stop-color:#fff;stop-opacity:0" offset="1"/>
  </linearGradient>
  <radialGradient id="radialGradient2445" gradientUnits="userSpaceOnUse" cy="112.3" cx="102" gradientTransform="matrix(.36170 0 0 -.39078 .85106 47.517)" r="139.56">
   <stop id="stop41" style="stop-color:#b7b8b9" offset="0"/>
   <stop id="stop47" style="stop-color:#ececec" offset=".18851"/>
   <stop id="stop49" style="stop-color:#fafafa;stop-opacity:0" offset=".25718"/>
   <stop id="stop51" style="stop-color:#fff;stop-opacity:0" offset=".30111"/>
   <stop id="stop53" style="stop-color:#fafafa;stop-opacity:0" offset=".53130"/>
   <stop id="stop55" style="stop-color:#ebecec;stop-opacity:0" offset=".84490"/>
   <stop id="stop57" style="stop-color:#e1e2e3;stop-opacity:0" offset="1"/>
  </radialGradient>
  <linearGradient id="linearGradient2448" y2="47.013" gradientUnits="userSpaceOnUse" x2="25.132" gradientTransform="matrix(1 0 0 .95617 -1.0065e-7 -1.9149)" y1=".98521" x1="25.132">
   <stop id="stop3602" style="stop-color:#f4f4f4" offset="0"/>
   <stop id="stop3604" style="stop-color:#dbdbdb" offset="1"/>
  </linearGradient>
  <linearGradient id="linearGradient2450" y2="2.9062" xlink:href="#linearGradient3104" gradientUnits="userSpaceOnUse" x2="-51.786" gradientTransform="matrix(.80750 0 0 .89483 59.41 -2.9806)" y1="50.786" x1="-51.786"/>
  <radialGradient id="radialGradient2453" xlink:href="#linearGradient5060" gradientUnits="userSpaceOnUse" cy="486.65" cx="605.71" gradientTransform="matrix(.023040 0 0 0.0147 26.361 37.04)" r="117.14"/>
  <radialGradient id="radialGradient2456" xlink:href="#linearGradient5060" gradientUnits="userSpaceOnUse" cy="486.65" cx="605.71" gradientTransform="matrix(-.023040 0 0 0.0147 21.623 37.04)" r="117.14"/>
  <linearGradient id="linearGradient2459" y2="609.51" gradientUnits="userSpaceOnUse" x2="302.86" gradientTransform="matrix(.067325 0 0 0.0147 -.34114 37.04)" y1="366.65" x1="302.86">
   <stop id="stop5050" style="stop-opacity:0" offset="0"/>
   <stop id="stop5056" offset=".5"/>
   <stop id="stop5052" style="stop-opacity:0" offset="1"/>
  </linearGradient>
 </defs>
 <rect id="rect2879" style="opacity:.3;fill:url(#linearGradient2459)" height="3.5701" width="32.508" y="42.43" x="7.7378"/>
 <path id="path2881" style="opacity:.3;fill:url(#radialGradient2456)" d="m7.7378 42.43v3.57c-1.1865 0.007-2.8683-0.8-2.8683-1.785 0-0.986 1.324-1.785 2.8683-1.785z"/>
 <path id="path2883" style="opacity:.3;fill:url(#radialGradient2453)" d="m40.246 42.43v3.57c1.187 0.007 2.869-0.8 2.869-1.785 0-0.986-1.325-1.785-2.869-1.785z"/>
 <path id="path4160" style="stroke-linejoin:round;stroke:url(#linearGradient2450);stroke-width:.99992;fill:url(#linearGradient2448)" d="m6.5 0.4972h24.061c1.407 0.47465 8.965 5.8822 10.939 9.6268v34.379h-35v-44.006z"/>
 <path id="path4191" style="fill:url(#radialGradient2445)" d="m7.3617 44c-0.1993 0-0.3617-0.175-0.3617-0.391v-42.204c0-0.2155 0.1624-0.3906 0.3617-0.3906 7.4833 0.108 15.775-0.16158 23.249 0.0269l10.283 8.866 0.106 33.702c0 0.216-0.162 0.391-0.362 0.391h-33.276z"/>
 <path id="path2435" style="opacity:.6;stroke-linejoin:round;stroke:url(#linearGradient2442);stroke-width:.99992;fill:none" d="m40.5 10.259v33.263h-33v-42.044c7.562-0.0003 15.304-0.0003 22.866-0.0003"/>
 <path id="path3475" style="stroke:url(#linearGradient2439);stroke-width:1px;fill:none" d="m11 8.5h2.344-2.344zm2.688 0h2.187-2.187zm2.531 0h1.937-1.937zm2.25 0h0.843-0.843zm1.187 0h1.875-1.875zm2.25 0h4.938-4.938zm5.25 0h3.782-3.782zm4.094 0h1.156-1.156zm-20.25 2h3.656-3.656zm4.062 0h1.75-1.75zm2.063 0h0.875-0.875zm1.219 0h1.594-1.594zm1.937 0h1.625-1.625zm1.938 0h2.593-2.593zm2.937 0h3.375-3.375zm3.688 0h2.25-2.25zm2.562 0h0.563-0.563zm-20.406 1.969h3.094-3.094zm3.406 0h5.063-5.063zm5.375 0h2.469-2.469zm2.781 0h2.313-2.313zm2.626 0h1.968-1.968zm2.281 0l3.093 0.031-3.093-0.031zm3.375 0.031h5.031-5.031zm-19.844 2h4.281-4.281zm4.625 0h4.625-4.625zm4.937 0h1.844-1.844zm2.157 0h4.343-4.343zm4.625 0h2.968-2.968zm3.312 0h1.188-1.188zm1.5 0h0.656-0.656zm1 0h1.844-1.844zm-22.156 2h1.594-1.594zm2.094 0h5.906-5.906zm-2.094 3.969h3.094-3.094zm3.406 0h5.063-5.063zm5.375 0h2.469-2.469zm2.781 0h2.313-2.313zm2.626 0h1.968-1.968zm2.281 0l3.093 0.031-3.093-0.031zm3.375 0.031h5.031-5.031zm-19.844 2h2.344-2.344zm2.688 0h2.156-2.156zm2.531 0h1.937-1.937zm2.25 0h0.843-0.843zm1.187 0h1.875-1.875zm2.25 0h4.906-4.906zm5.25 0h3.75-3.75zm4.063 0h1.187-1.187zm1.5 0h2.812-2.812zm-21.719 2h3.938-3.938zm4.25 0h4.219-4.219zm4.531 0h1.625-1.625zm1.938 0h3.969-3.969zm4.281 0h5-5zm5.344 0h1.844-1.844zm-20.344 2h4.281-4.281zm4.625 0h4.625-4.625zm4.937 0h1.844-1.844zm2.157 0h4.343-4.343zm4.625 0h2.968-2.968zm3.312 0h1.188-1.188zm1.5 0h0.656-0.656zm1 0h1.844-1.844zm-22.156 2h3.656-3.656zm4.062 0h1.75-1.75zm2.063 0h0.875-0.875zm1.219 0h1.594-1.594zm1.937 0h1.625-1.625zm1.938 0h2.593-2.593zm2.937 0h3.375-3.375zm3.688 0h2.25-2.25zm2.562 0h0.563-0.563zm-20.406 3.969h3.094-3.094zm3.406 0h5.063-5.063zm5.375 0h2.469-2.469zm2.781 0h2.313-2.313zm2.626 0h1.968-1.968zm2.281 0l3.093 0.031-3.093-0.031zm3.375 0.031h5.031-5.031zm-19.844 2h3.656-3.656zm4.062 0h1.75-1.75zm2.063 0h0.875-0.875zm1.219 0h1.594-1.594zm1.937 0h1.625-1.625zm1.938 0h2.593-2.593zm2.937 0h3.375-3.375zm3.688 0h2.25-2.25zm2.562 0h0.563-0.563zm-20.406 2h3.875-3.875zm4.219 0h1.219-1.219zm1.531 0h2.781-2.781zm3.094 0h4.094-4.094zm4.437 0h2.781-2.781zm3.063 0h0.594-0.594zm0.906 0h3.531-3.531zm3.906 0h1.844-1.844zm-21.156 2h3.875-3.875zm4.219 0h1.75-1.75zm2.062 0h2.75-2.75zm3.063 0h2.968-2.968zm3.312 0h1.188-1.188zm1.5 0h0.656-0.656zm1 0h1.844-1.844z"/>
 <path id="rect2878" style="opacity:.3;fill:#cf9372" d="m10 7v30 1 2h17v-2h10v-31h-27z"/>
 <path id="rect3782" style="fill:#fff" d="m24 35v3h1v1h-1v3h5v-3h-0.969v-1h0.969v-3h-5z"/>
 <path id="rect3789" d="m25 36v1h1v3h-1v1h3v-1h-1v-3h1v-1h-3z"/>
 <path id="path12038" style="opacity:.4;fill-rule:evenodd;filter:url(#filter3248)" d="m28.617 0.92126c4.283 0 2.154 8.4831 2.154 8.4831s10.357-1.8023 10.357 2.8186c0-2.6095-11.302-10.728-12.511-11.302z"/>
 <path id="path4474" style="fill:url(#linearGradient2432);fill-rule:evenodd" d="m28.617 0.92126c3.187 0 2.336 7.6618 2.336 7.6618s10.175-0.981 10.175 3.6399c0-1.126 0.086-1.932-0.134-2.2834-1.578-2.5242-8.395-8.1884-10.857-8.9308-0.184-0.05556-0.593-0.08754-1.52-0.08754z"/>
</svg>
